X:1
T:Patmos (Storer), 76.86 D
T:Patmos (Storer), 76.86 D
T:Henry Johnson Storer, 1891
T:Public Domain Courtesy of the Cyber Hymnal™
C:Henry Johnson Storer, 1891
Z:Public Domain
Z:Courtesy of the Cyber Hymnal™
%%score ( 1 2 ) ( 3 4 )
L:1/8
Q:1/4=115
M:none
K:F
V:1 treble 
V:2 treble 
V:3 bass 
V:4 bass 
V:1
 C2"^Broadly, with dignity" | C3 [CD] [CE]2 [CF]2 x | [CF]4 [CE]2 [CF]2 | %3
 [CG]2 [C^F]2 [CG]2 [E^G]2 | [FA]6 C2 | [CA]3 [FA] [EA]2 [_EA]2 | [DA]2 [DG]2 [DB]2 [DG]2 | %7
 [DF]3 [DF] [^CE]2 D2 | [^CA]6 A2 | G3 [FA] [EB]2 [FB]2 | [GB]4 [GA]2 [GA]2 | %11
 [Ff]2 [Fe]2 [Fd]2 [Fe]2 | [Ec]6 C2 | F2 A2 c2 [Gc]2 | [Ff]3 F [DF]2 [FG]2 | %15
 [FA]2 [CF]2 [CE]2 (FG) | [CF]6 |] %17
V:2
 C2 | C3 x6 | x8 | x8 | x6 C2 | x8 | x8 | x6 D2 | x6 A2 | x8 | x8 | x8 | x6 C2 | F2 A2 c2 x2 | %14
 x3 F x4 | x6 C2 | x6 |] %17
V:3
 C,2 | A,3 z A, [F,A,]2 [A,C]2 | [G,B,]4 [C,B,]2 [D,B,]2 | [E,B,]2 [^D,A,]2 [E,B,]2 [C,B,]2 | %4
 [F,A,]6 [C,C]2 | [F,C]3 [F,C] [F,C]2 [^F,C]2 | [^F,C]2 [G,B,]2 [G,B,]2 [E,B,]2 | %7
 z2 z A, [A,,G,]2 [A,,F,]2 | [A,,E,]6 A,2 | [B,D]3 [A,D] [G,D]2 [F,D]2 | [E,D]4 [A,^C]2 [A,C]2 | %11
 [D,A,]2 [D,C]2 [G,C]2 [G,=B,]2 | [C,C]6 C,2 | F,2 A,2 C2 [B,C]2 | [A,C]2 [A,^C]2 [B,D]2 [B,_D]2 | %15
 C2 [C,A,]2 [C,G,]2 [C,B,]2 | [F,A,]6 |] %17
V:4
 C,2 | F,2 C,2 x5 | x8 | x8 | x8 | x8 | x8 | A,3 A,,2 x3 | x6 A,2 | x8 | x8 | x8 | x6 C,2 | %13
 F,2 A,2 C2 x2 | x8 | C2 x6 | x6 |] %17

